X: 712
T: Ah Surely
R: reel
M: 4/4
K: Gmajor
|:A4 BA (3AAA|BA Be ef gA|FA ~A2 BA Bd|e2 dc BG GG|
{G}A4 BA (3AAA|BA Bd g3 a|bg ag eg fa|1 ge dc BG GG:|2 ge dc BG G2||
|:bg (3ggg ag ef|(3ggg {a}ge de ga|bg (3ggg bg dg|ea ~a2 ea a2|
bg (3ggg ag ef (3ggg {a}ge de ga|bg ag eg fa|1 ge dc BG G2:|2 ge dc BG GG||

